X: 20921
M: 2/4
L: 1/16
K: F
V: 1 name="1"
cB |\
d'd' |\
d'2aa a2ff | f2d2 z2AA | A4 F2D2 | A,6 e'2 |\
a2ag f2a2 | g2gf e2g2 | f2de fed^c | e4 "^D.C."d2 |]


